X: 1
T:Lady Montgomery
M:C
L:1/8
Q:240
S:Altan, The Red Crow
R:Reel
A:Donegal
K:D
|:F2 ~F2 AFDE | F2 EG FDDE | F2 ~F2 AFDE | F2 EF D4 :| d2 AG FGAB |
A2 dA (3Bcd ec | d2 AG FGAB | AFEG FDFA |  d2 AG FGAB | A2 dA (3Bcd ec |
d2 AG FGAB | AFEG FDDE ||
